brandFactory_export/1.Light/Atencion al cliente_Ayuda_1Light.svg

<?xml version="1.0" encoding="UTF-8"?>
<svg width="24px" height="24px" viewBox="0 0 24 24" version="1.1" xmlns="http://www.w3.org/2000/svg" xmlns:xlink="http://www.w3.org/1999/xlink">
    <title>1.Light/Atencion al cliente_Ayuda_1Light</title>
    <g id="Symbols" stroke="none" stroke-width="1" fill="none" fill-rule="evenodd">
        <g id="1.Light/Atencion-al-cliente_Ayuda_1Light" fill="#5CB615" fill-rule="nonzero">
            <path d="M10.8907563,17.3747899 C12.4033613,17.3747899 13.5663866,17.7714286 14.3428571,18.5579832 C15.1193277,19.3445378 15.5159664,20.507563 15.5159664,22.0302521 L15.5159664,23.2806723 C15.5159664,23.4621849 15.3647059,23.6134454 15.1798319,23.6134454 L0.336134454,23.6134454 C0.151260504,23.6134454 -2.44337883e-11,23.4621849 -2.44337883e-11,23.2773109 L-2.44337883e-11,22.0268908 C-2.44337883e-11,20.507563 0.393277311,19.3378151 1.17310924,18.5546218 C1.95294118,17.7714286 3.11260504,17.3747899 4.62521008,17.3747899 L10.8907563,17.3747899 Z M10.8907563,18.0470588 L4.62521008,18.0470588 C3.29747899,18.0470588 2.29579832,18.3764706 1.64705882,19.0285714 C0.998319328,19.6806723 0.672268908,20.692437 0.672268908,22.0268908 L0.672268908,22.9411765 L14.8436975,22.9411765 L14.8436975,22.0268908 C14.8436975,20.6890756 14.5142857,19.6806723 13.8689076,19.0285714 C13.2235294,18.3764706 12.2184874,18.0470588 10.8907563,18.0470588 Z M7.75798319,7.86554622 C9.11932773,7.86554622 10.1747899,8.25210084 10.8941176,9.01512605 C11.5731092,9.73445378 11.9193277,10.7495798 11.9193277,12.0302521 C11.9193277,13.3109244 11.5731092,14.3226891 10.8941176,15.0453782 C10.1747899,15.805042 9.11932773,16.1915966 7.75798319,16.1915966 C6.39663866,16.1915966 5.34117647,15.805042 4.62184874,15.0420168 C3.9394958,14.3226891 3.59663866,13.3109244 3.59663866,12.0302521 C3.59663866,10.7495798 3.94285714,9.73781513 4.62184874,9.01512605 C5.34117647,8.25210084 6.39663866,7.86554622 7.75798319,7.86554622 Z M7.75798319,8.53781513 C6.16470588,8.53781513 4.26890756,9.14285714 4.26890756,12.0302521 C4.26890756,13.6235294 4.87394958,15.5193277 7.75798319,15.5193277 C10.6420168,15.5193277 11.2470588,13.6201681 11.2470588,12.0302521 C11.2470588,10.4403361 10.6420168,8.53781513 7.75798319,8.53781513 Z M21.9663866,-8.8817842e-15 C22.4,0.00672268908 22.8168067,0.181512605 23.1226891,0.490756303 C23.4319328,0.796638655 23.610084,1.21008403 23.6134454,1.64369748 L23.6134454,6.23193277 C23.5966387,7.13277311 22.8672269,7.86218487 21.9663866,7.8789916 L16.9042017,7.8789916 C16.507563,8.47058824 15.7411765,9.62016807 15.697479,9.6907563 C15.6033613,9.83529412 15.3747899,10.1882353 15.005042,10.1882353 C14.9680672,10.1882353 14.9310924,10.1848739 14.8941176,10.1781513 C14.4596639,10.1011204 14.4234594,9.72752101 14.4204423,9.55445845 L14.4201681,7.88235294 L13.4453782,7.88235294 C12.5445378,7.86554622 11.8151261,7.13613445 11.7983193,6.23529412 L11.7983193,1.64705882 C11.7983193,0.786554622 12.6319328,-8.8817842e-15 13.5462185,-8.8817842e-15 L21.9663866,-8.8817842e-15 Z M21.9663866,0.672268908 L13.5462185,0.672268908 C13.0016807,0.672268908 12.4705882,1.15630252 12.4705882,1.64705882 L12.4705882,6.23529412 C12.4705882,6.74621849 12.9344538,7.21008403 13.4453782,7.21008403 L14.7563025,7.21008403 C14.9411765,7.21008403 15.092437,7.36134454 15.092437,7.54621849 L15.092437,9.38487395 C15.102521,9.36806723 15.1159664,9.3512605 15.1294118,9.33109244 C15.1932773,9.2302521 16.3932773,7.43529412 16.4436975,7.36134454 C16.507563,7.26722689 16.6117647,7.21008403 16.7226891,7.21344538 L21.9663866,7.21344538 C22.4773109,7.21344538 22.9411765,6.74957983 22.9411765,6.23865546 L22.9411765,1.64705882 C22.9411765,1.13613445 22.4773109,0.672268908 21.9663866,0.672268908 Z M17.7008403,5.75462185 C17.8084034,5.7512605 17.912605,5.79159664 17.9865546,5.86890756 C18.0605042,5.94285714 18.1008403,6.04033613 18.1008403,6.14453782 C18.1008403,6.2487395 18.0605042,6.34621849 17.9865546,6.41680672 C17.912605,6.49411765 17.8084034,6.53781513 17.7008403,6.53445378 C17.5932773,6.53781513 17.492437,6.49411765 17.4184874,6.42016807 C17.3445378,6.34957983 17.3008403,6.25210084 17.3008403,6.14789916 C17.3008403,5.93277311 17.4756303,5.75462185 17.6907563,5.75462185 L17.7008403,5.75462185 Z M17.687395,1.26722689 C18.5210084,1.26722689 19.2235294,1.96302521 19.2235294,2.78319328 C19.2235294,3.41176471 18.8672269,3.72436975 18.605042,3.95294118 L18.5781513,3.97647059 C18.5210084,4.02689076 18.4605042,4.07394958 18.4,4.12436975 C18.302521,4.19831933 18.107563,4.35630252 18.0739496,4.4302521 L18.0739496,5.04201681 C18.0798319,5.2302521 17.9467437,5.38503151 17.7692621,5.42078519 L17.6907563,5.42857143 L17.6907563,5.42857143 C17.4756303,5.42857143 17.3042017,5.25378151 17.3042017,5.04201681 L17.3042017,4.41680672 C17.3042017,4 17.6638655,3.71764706 17.9260504,3.51260504 C17.9798319,3.46890756 18.0336134,3.42857143 18.0705882,3.39495798 L18.097479,3.37142857 C18.3361345,3.15966387 18.4504202,3.0487395 18.4504202,2.78319328 C18.4504202,2.34621849 18.0470588,2.04033613 17.687395,2.04033613 C17.2504202,2.04033613 16.9243697,2.35966387 16.9243697,2.78319328 C16.9142857,2.99831933 16.7361345,3.16302521 16.5210084,3.15294118 C16.3193277,3.14621849 16.1579832,2.98487395 16.1512605,2.78319328 C16.1512605,1.93277311 16.8268908,1.26722689 17.687395,1.26722689 Z" id="Atencion-al-cliente_Ayuda_1Light"></path>
        </g>
    </g>
</svg>

<svg width="24" height="24" viewBox="0 0 24 24" xmlns="http://www.w3.org/2000/svg"><path d="M10.89 17.375c1.513 0 2.676.396 3.453 1.183.776.787 1.173 1.95 1.173 3.472v1.25a.336.336 0 01-.336.333H.336A.337.337 0 010 23.277v-1.25c0-1.52.393-2.69 1.173-3.472.78-.784 1.94-1.18 3.452-1.18h6.266zm0 .672H4.626c-1.328 0-2.33.33-2.978.982-.649.652-.975 1.663-.975 2.998v.914h14.172v-.914c0-1.338-.33-2.346-.975-2.998-.645-.653-1.65-.982-2.978-.982zM7.759 7.866c1.361 0 2.417.386 3.136 1.15.68.718 1.025 1.734 1.025 3.014 0 1.28-.346 2.293-1.025 3.015-.72.76-1.775 1.147-3.136 1.147-1.361 0-2.417-.387-3.136-1.15-.683-.72-1.025-1.731-1.025-3.012 0-1.28.346-2.292 1.025-3.015.72-.763 1.775-1.15 3.136-1.15zm0 .672c-1.593 0-3.49.605-3.49 3.492 0 1.594.606 3.49 3.49 3.49 2.884 0 3.49-1.9 3.49-3.49 0-1.59-.606-3.492-3.49-3.492zM21.966 0c.434.007.85.182 1.157.49.309.307.487.72.49 1.154v4.588c-.016.9-.746 1.63-1.647 1.647h-5.062c-.396.592-1.163 1.741-1.207 1.812-.094.144-.322.497-.692.497a.619.619 0 01-.11-.01c-.435-.077-.472-.45-.475-.624V7.882h-.975a1.681 1.681 0 01-1.647-1.647V1.647c0-.86.834-1.647 1.748-1.647h8.42zm0 .672h-8.42c-.544 0-1.075.484-1.075.975v4.588c0 .511.463.975.974.975h1.311c.185 0 .336.151.336.336v1.839c.01-.017.024-.034.037-.054.064-.1 1.264-1.896 1.315-1.97a.328.328 0 01.279-.148h5.243c.511 0 .975-.463.975-.974V1.647c0-.51-.464-.975-.975-.975zm-4.265 5.083a.378.378 0 01.286.114.386.386 0 010 .548.38.38 0 01-.286.117.383.383 0 01-.283-.114.376.376 0 01-.117-.272c0-.215.175-.393.39-.393h.01zm-.014-4.488c.834 0 1.537.696 1.537 1.516 0 .629-.357.941-.619 1.17l-.027.023c-.057.05-.117.098-.178.148-.097.074-.292.232-.326.306v.612a.375.375 0 01-.305.379l-.078.008a.387.387 0 01-.387-.387v-.625c0-.417.36-.7.622-.904.054-.044.108-.084.145-.118l.026-.024c.24-.211.353-.322.353-.588 0-.437-.403-.743-.763-.743-.437 0-.763.32-.763.743a.385.385 0 01-.403.37.382.382 0 01-.37-.37c0-.85.676-1.516 1.536-1.516z" fill="#5CB615" fill-rule="nonzero"/></svg>
